X: 690b
T: My Last Days On Earth
C: Bill Monroe (Dm tuning: AA  DD  AC  DF)
S: MandoZine TablEdit Archives 
Z: TablEdited by Dan Freeman for MandoZine
L: 1/8
Q: 200
M: 3/4
K: Dm
 "Dm tuning: AA  DD  AC  DF"[f3d3][c3A3] | D2 A,2 A,2 | D3[c3A3] | [f3d3]A, A,C |
 "Part A""Dm"[D/4_D/4][=D/4D/4][D/4D/4][D/4D/4][D/4D/4][D/4D/4][D/4D/4][D/4D/4] [DD][DD] (3DCA, |
 "F"E/4F/4F/4F/4F/4F/4F/4F/4 FF F/4F/4G/4G/4F/4F/4F/4F/4 | "C"E/4E/4E/4E/4E/4E/4E/4E/4 EF (3E/F/E/_D |
 "Dm"D/4D/4D/4D/4D/4D/4D/4D/4 DD A,C | [D/_D/][=D/4D/4][D/4D/4][D/4D/4][D/4D/4][D/4D/4][D/4D/4] [DD][DD] (3DCA, |
 "G"[d/4=B/4G/4][d/4=B/4G/4][d/4=B/4G/4][d/4=B/4G/4][d/4=B/4G/4][d/4=B/4G/4][d/4=B/4G/4][d/4=B/4G/4] [d/4=B/4G/4][d/4=B/4G/4][d/4=B/4G/4][d/4=B/4G/4][d/4=B/4G/4][d/4=B/4G/4][d/4=B/4G/4][d/4=B/4G/4] [d=BG][d=BG] |
 "A"[e/4_d/4A/4][e/4_d/4A/4][e/4_d/4A/4][e/4_d/4A/4][e/4_d/4A/4][e/4_d/4A/4][e/4_d/4A/4][e/4_d/4A/4] [e/4_d/4A/4][e/4_d/4A/4][e/4_d/4A/4][e/4_d/4A/4][e/4_d/4A/4][e/4_d/4A/4][e/4_d/4A/4][e/4_d/4A/4] [e_dA][e_dA] |
 [e/4_d/4A/4][e/4_d/4A/4][e/4_d/4A/4][e/4_d/4A/4][e/4_d/4A/4][e/4_d/4A/4][e/4_d/4A/4][e/4_d/4A/4] [e_dA][e_dA] A,C |
 "Dm"[D/4_D/4][=D/4D/4][D/4D/4][D/4D/4][D/4D/4][D/4D/4][D/4D/4][D/4D/4] [DD][DD] (3DCA, |
 "F"E/4F/4F/4F/4F/4F/4F/4F/4 FF F/4F/4G/4G/4F/4F/4F/4F/4 | "C"E/4E/4E/4E/4E/4E/4E/4E/4 EF (3E/F/E/D |
 "Dm"D/4D/4D/4D/4D/4D/4D/4D/4 DD A,C | D/4D/4D/4D/4D/4D/4D/4D/4 DD F/4F/4E/4E/4D/4D/4D/4D/4 |
 "A"E/4E/4E/4E/4E/4E/4E/4E/4 EE F/4F/4E/4E/4D/4D/4D/4D/4 | "Dm"[D/_D/][=D/4D/4][D/4D/4][D/4D/4][D/4D/4][D/4D/4][D/4D/4] [D/4D/4][D/4D/4][D/4D/4][D/4D/4][D/4D/4][D/4D/4][D/4D/4][D/4D/4] [DD][DD] |
 [D/4D/4][D/4D/4][D/4D/4][D/4D/4][D/4D/4][D/4D/4][D/4D/4][D/4D/4] [D/4D/4][D/4D/4][D/4D/4][D/4D/4][D/4D/4][D/4D/4][D/4D/4][D/4D/4] [DD][DD] |

 "Part B""G"[d/4=B/4G/4][d/4=B/4G/4][d/4=B/4G/4][d/4=B/4G/4][d/4=B/4G/4][d/4=B/4G/4][d/4=B/4G/4][d/4=B/4G/4] [d/4=B/4G/4][d/4=B/4G/4][d/4=B/4G/4][d/4=B/4G/4][d/4=B/4G/4][d/4=B/4G/4][d/4=B/4G/4][d/4=B/4G/4] [d=BG][d=BG] |
 "A"[e/4_d/4A/4][e/4_d/4A/4][e/4_d/4A/4][e/4_d/4A/4][e/4_d/4A/4][e/4_d/4A/4][e/4_d/4A/4][e/4_d/4A/4] [e/4_d/4A/4][e/4_d/4A/4][e/4_d/4A/4][e/4_d/4A/4][e/4_d/4A/4][e/4_d/4A/4][e/4_d/4A/4][e/4_d/4A/4] [e_dA][e_dA] |
 "Dm"[f/4d/4A/4][f/4d/4A/4][f/4d/4A/4][f/4d/4A/4][f/4d/4A/4][f/4d/4A/4][f/4d/4A/4][f/4d/4A/4] [f/4d/4A/4][f/4d/4A/4][f/4d/4A/4][f/4d/4A/4][f/4d/4A/4][f/4d/4A/4][f/4d/4A/4][f/4d/4A/4] [fdA][fdA] |
 [f/4d/4A/4][f/4d/4A/4][f/4d/4A/4][f/4d/4A/4][f/4d/4A/4][f/4d/4A/4][f/4d/4A/4][f/4d/4A/4] [fdA][fdA] DD |
 "G"[d/4=B/4G/4][d/4=B/4G/4][d/4=B/4G/4][d/4=B/4G/4][d/4=B/4G/4][d/4=B/4G/4][d/4=B/4G/4][d/4=B/4G/4] [d/4=B/4G/4][d/4=B/4G/4][d/4=B/4G/4][d/4=B/4G/4][d/4=B/4G/4][d/4=B/4G/4][d/4=B/4G/4][d/4=B/4G/4] [d=BG][d=BG] |
 "A"[e/4_d/4A/4][e/4_d/4A/4][e/4_d/4A/4][e/4_d/4A/4][e/4_d/4A/4][e/4_d/4A/4][e/4_d/4A/4][e/4_d/4A/4] [e/4_d/4A/4][e/4_d/4A/4][e/4_d/4A/4][e/4_d/4A/4][e/4_d/4A/4][e/4_d/4A/4][e/4_d/4A/4][e/4_d/4A/4] [e_dA][e_dA] |
 "Dm"[f/4d/4A/4][f/4d/4A/4][f/4d/4A/4][f/4d/4A/4][f/4d/4A/4][f/4d/4A/4][f/4d/4A/4][f/4d/4A/4] [f/4d/4A/4][f/4d/4A/4][f/4d/4A/4][f/4d/4A/4][f/4d/4A/4][f/4d/4A/4][f/4d/4A/4][f/4d/4A/4] [fdA][fdA] |
 "Dm"[f/4d/4A/4][f/4d/4A/4][f/4d/4A/4][f/4d/4A/4][f/4d/4A/4][f/4d/4A/4][f/4d/4A/4][f/4d/4A/4] [f/4d/4A/4][f/4d/4A/4][f/4d/4A/4][f/4d/4A/4][f/4d/4A/4][f/4d/4A/4][f/4d/4A/4][f/4d/4A/4] [fd][fd] |
 [c'/4a/4][c'/4a/4][c'/4a/4][c'/4a/4][c'/4a/4][c'/4a/4][c'/4a/4][c'/4a/4] [c'a][c'a] [c'/4a/4][c'/4a/4][_d'/4b/4][d'/4b/4][c'/4a/4][c'/4a/4][c'/4a/4][c'/4a/4] |
 "Gm"[b/4g/4][b/4g/4][b/4g/4][b/4g/4][b/4g/4][b/4g/4][b/4g/4][b/4g/4] [bg][bg] [c'a][bg] |
 "Dm"[_a/4f/4][_a/4f/4][_a/4f/4][_a/4f/4][_a/4f/4][_a/4f/4][_a/4f/4][_a/4f/4] [af][af] [_a/4f/4][_a/4f/4][g/4e/4][g/4e/4][f/4d/4][f/4d/4][f/4d/4][f/4d/4] |
 [f/4d/4A/4][f/4d/4A/4][f/4d/4A/4][f/4d/4A/4][f/4d/4A/4][f/4d/4A/4][f/4d/4A/4][f/4d/4A/4] [fdA]D D/4D/4G/4G/4A/4A/4A/4A/4 |
 [f/4d/4][f/4d/4][f/4d/4][f/4d/4][f/4d/4][f/4d/4][f/4d/4][f/4d/4] [fd][fd] [_a/4f/4][_a/4f/4][g/4e/4][g/4e/4][f/4d/4][f/4d/4][f/4d/4][f/4d/4] |
 "A"[g/4e/4][g/4e/4][g/4e/4][g/4e/4][g/4e/4][g/4e/4][g/4e/4][g/4e/4] [ge][fd] [_a/4f/4][_a/4f/4][g/4e/4][g/4e/4][f/4d/4][f/4d/4][f/4d/4][f/4d/4] |
 "Dm"[f/4d/4][f/4d/4][f/4d/4][f/4d/4][f/4d/4][f/4d/4][f/4d/4][f/4d/4] [f/4d/4][f/4d/4][f/4d/4][f/4d/4][f/4d/4][f/4d/4][f/4d/4][f/4d/4] [fd][fd] |
 [f/4d/4][f/4d/4][f/4d/4][f/4d/4][f/4d/4][f/4d/4][f/4d/4][f/4d/4] [fd]D D/4D/4G/4G/4A/4A/4A/4A/4 |

 "Part C"[f/4d/4][f/4d/4][f/4d/4][f/4d/4][f/4d/4][f/4d/4][f/4d/4][f/4d/4] [f/4d/4][f/4d/4][f/4d/4][f/4d/4][f/4d/4][f/4d/4][f/4d/4][f/4d/4]
 [f/4d/4][f/4d/4][e/4_d/4][e/4d/4][c/4A/4][c/4A/4][c/4A/4][c/4A/4] |
 "F"[b/4g/4][c'/4a/4][c'/4a/4][c'/4a/4][c'/4a/4][c'/4a/4][c'/4a/4][c'/4a/4] [c'/4a/4][c'/4a/4][c'/4a/4][c'/4a/4][c'/4a/4][c'/4a/4][c'/4a/4][c'/4a/4] [bg][_af] |
 "Am"[b/4g/4][c'/4a/4][c'/4a/4][c'/4a/4][c'/4a/4][c'/4a/4][c'/4a/4][c'/4a/4] [c'/4a/4][c'/4a/4][c'/4a/4][c'/4a/4][c'/4a/4][c'/4a/4][c'/4a/4][c'/4a/4] [bg][_af] |
 "Dm"[f/4d/4][f/4d/4][f/4d/4][f/4d/4][f/4d/4][f/4d/4][f/4d/4][f/4d/4] [fd]D (3A[cA][e_d] |
 [f/4d/4][f/4d/4][f/4d/4][f/4d/4][f/4d/4][f/4d/4][f/4d/4][f/4d/4]
  [f/4d/4][f/4d/4][f/4d/4][f/4d/4][f/4d/4][f/4d/4][f/4d/4][f/4d/4] [fd][fd] |
 "F"[b/4g/4][c'/4a/4][c'/4a/4][c'/4a/4][c'/4a/4][c'/4a/4][c'/4a/4][c'/4a/4] [c'/4a/4][c'/4a/4][c'/4a/4][c'/4a/4][c'/4a/4][c'/4a/4][c'/4a/4][c'/4a/4] [bg][_af] |
 "Am"[b/4g/4][c'/4a/4][c'/4a/4][c'/4a/4][c'/4a/4][c'/4a/4][c'/4a/4][c'/4a/4] [c'/4a/4][c'/4a/4][c'/4a/4][c'/4a/4][c'/4a/4][c'/4a/4][c'/4a/4][c'/4a/4] [c'/4a/4][c'/4a/4][c'/4a/4][c'/4a/4][c'/4a/4][c'/4a/4][c'/4a/4][c'/4a/4] |
 [c'4a4] [f'/4d'/4][f'/4d'/4][f'/4d'/4][f'/4d'/4][_e'/4c'/4][_e'/4c'/4][_e'/4c'/4][_e'/4c'/4] |
 "Dm"[b/4g/4][c'/4a/4][c'/4a/4][c'/4a/4][c'/4a/4][c'/4a/4][c'/4a/4][c'/4a/4] [c'/4a/4][c'/4a/4][c'/4a/4][c'/4a/4][c'/4a/4][c'/4a/4][c'/a/] [f'/4d'/4][f'/4d'/4][f'/4d'/4][f'/4d'/4][_e'/4c'/4][_e'/4c'/4][_e'/4c'/4][_e'/4c'/4] |
 "Gm"[b/4g/4][b/4g/4][b/4g/4][b/4g/4][b/4g/4][b/4g/4][b/4g/4][b/4g/4] [b/4g/4][b/4g/4][b/4g/4][b/4g/4][b/4g/4][b/4g/4][b/4g/4][b/4g/4] [bg][bg] |
 "Dm"[_a3f3][af] [(3g/e/][a/f/][g/e/][fd] | A/4A/4A/4A/4A/4A/4A/4A/4 AA (3DGA | [f/4d/4][f/4d/4][f/4d/4][f/4d/4][f/4d/4][f/4d/4][f/4d/4][f/4d/4]
 [fd][fd] [_a/f/][g/4e/4][g/4e/4][f/4d/4][f/4d/4][f/4d/4][f/4d/4] |
 "A"[g/4e/4][g/4e/4][g/4e/4][g/4e/4][g/4e/4][g/4e/4][g/4e/4][g/4e/4] [ge][fd] [_a/f/][g/4e/4][g/4e/4][f/4d/4][f/4d/4][f/4d/4][f/4d/4] |
 "Dm"[f/4d/4][f/4d/4][f/4d/4][f/4d/4][f/4d/4][f/4d/4][f/4d/4][f/4d/4] [f/4d/4][f/4d/4][f/4d/4][f/4d/4][f/4d/4][f/4d/4][f/4d/4][f/4d/4]
 [f/4d/4][f/4d/4][f/4d/4][f/4d/4][f/4d/4][f/4d/4][f/4d/4][f/4d/4] |
 [f/4d/4][f/4d/4][f/4d/4][f/4d/4][f/4d/4][f/4d/4][f/4d/4][f/4d/4] [f4d4] |

 "Interlude (N.C.)"[_a/f/][g/e/][f/d/][a/f/] [g/e/][f/d/][a/f/][g/e/] [f/d/][a/f/][g/e/][f/d/] |
 [_a/f/][g/e/][f/d/]z/ [_e/c/][d/=B/][c/A/][e/c/] [d/B/][c/A/][e/c/][d/B/] |
 [c/A/][_e/c/][d/=B/][c/A/] [_e/c/][d/B/][c/A/]z/ F/E/D/F/ |
 E/D/F/E/ D/F/E/D/ F/E/D/z/ | A,_D =D2 [cA][cA] |

|: "Part D""D"[a/4_g/4d/4][a/4_g/4d/4][a/4_g/4d/4][a/4_g/4d/4][a/4_g/4d/4][a/4_g/4d/4][a/4_g/4d/4][a/4_g/4d/4] [a/4_g/4d/4][a/4_g/4d/4][a/4_g/4d/4][a/4_g/4d/4][a/4_g/4d/4][a/4_g/4d/4][a/4_g/4d/4][a/4_g/4d/4] [a_gd][a_gd] |
 "C"[g/4e/4c/4][g/4e/4c/4][g/4e/4c/4][g/4e/4c/4][g/4e/4c/4][g/4e/4c/4][g/4e/4c/4][g/4e/4c/4] [g/4e/4c/4][g/4e/4c/4][g/4e/4c/4][g/4e/4c/4][g/4e/4c/4][g/4e/4c/4][g/4e/4c/4][g/4e/4c/4] [gec][gec] |
 "D"[a/4_g/4d/4][a/4_g/4d/4][a/4_g/4d/4][a/4_g/4d/4][a/4_g/4d/4][a/4_g/4d/4][a/4_g/4d/4][a/4_g/4d/4] [a/4_g/4d/4][a/4_g/4d/4][a/4_g/4d/4][a/4_g/4d/4][a/4_g/4d/4][a/4_g/4d/4][a/4_g/4d/4][a/4_g/4d/4] [a_gd][a_gd] |
 "Dm"[c/4A/4][c/4A/4][c/4A/4][c/4A/4][c/4A/4][c/4A/4][c/4A/4][c/4A/4] [cA][cA] [cA][cA] |
 "D"[a/4_g/4d/4][a/4_g/4d/4][a/4_g/4d/4][a/4_g/4d/4][a/4_g/4d/4][a/4_g/4d/4][a/4_g/4d/4][a/4_g/4d/4] [a/4_g/4d/4][a/4_g/4d/4][a/4_g/4d/4][a/4_g/4d/4][a/4_g/4d/4][a/4_g/4d/4][a/4_g/4d/4][a/4_g/4d/4] [a_gd][a_gd] |
 "C"[g/4e/4c/4][g/4e/4c/4][g/4e/4c/4][g/4e/4c/4][g/4e/4c/4][g/4e/4c/4][g/4e/4c/4][g/4e/4c/4] [g/4e/4c/4][g/4e/4c/4][g/4e/4c/4][g/4e/4c/4][g/4e/4c/4][g/4e/4c/4][g/4e/4c/4][g/4e/4c/4] [gec][gec] |
 "Dm"D2 [c/4A/4A/4][c/4A/4A/4][c/4A/4A/4][c/4A/4A/4][c/4A/4A/4][c/4A/4A/4][c/4A/4A/4][c/4A/4A/4] [cAA][cAA] |
 [c/4A/4A/4][c/4A/4A/4][c/4A/4A/4][c/4A/4A/4][c/4A/4A/4][c/4A/4A/4][c/4A/4A/4][c/4A/4A/4] [cAA][cAA] [cAA][cAA] |
 "D"[a/4_g/4d/4][a/4_g/4d/4][a/4_g/4d/4][a/4_g/4d/4][a/4_g/4d/4][a/4_g/4d/4][a/4_g/4d/4][a/4_g/4d/4] [a/4_g/4d/4][a/4_g/4d/4][a/4_g/4d/4][a/4_g/4d/4][a/4_g/4d/4][a/4_g/4d/4][a/4_g/4d/4][a/4_g/4d/4] [a_gd][a_gd] |
 "C"[g/4e/4c/4][g/4e/4c/4][g/4e/4c/4][g/4e/4c/4][g/4e/4c/4][g/4e/4c/4][g/4e/4c/4][g/4e/4c/4] [g/4e/4c/4][g/4e/4c/4][g/4e/4c/4][g/4e/4c/4][g/4e/4c/4][g/4e/4c/4][g/4e/4c/4][g/4e/4c/4] [gec][gec] |
 "Dm"[f/4d/4A/4][f/4d/4A/4][f/4d/4A/4][f/4d/4A/4][f/4d/4A/4][f/4d/4A/4][f/4d/4A/4][f/4d/4A/4] [fdA][fd] AD |
 "Gm"G/4G/4G/4G/4G/4G/4G/4G/4 G/4G/4G/4G/4G/4G/4G/ A,_D | "Dm"[D/4D/4][D/4D/4][D/4D/4][D/4D/4][D/4D/4][D/4D/4][D/4D/4][D/4D/4](3EFE (3FED |
 "A"[A/4E/4][A/4E/4][A/4E/4][A/4E/4][A/4E/4][A/4E/4][A/4E/4][A/4E/4] (3EFE (3FED |
 "Dm"[D/4D/4][D/4D/4][D/4D/4][D/4D/4][D/4D/4][D/4D/4][D/4D/4][D/4D/4] [DD][DD] [DD][DD] |
|1 [D2D2] [D2D2] [cA][cA] :|2 [D2D2] [DD]A, A,C | 

"Part A""Dm"D/4[D/4D/4][D/4D/4][D/4D/4][D/4D/4][D/4D/4][D/4D/4][D/4D/4] [DD][DD] (3DCA, |
 "F"E/F/4F/4F/4F/4F/4F/4 FF F/4F/4G/4G/4F/4F/4F/4F/4 | "C"E/4E/4E/4E/4E/4E/4E/4E/4 EF (3E/F/E/D |
 "Dm"D/4D/4D/4D/4D/4D/4D/4D/4 DD A,C | [D/4D/4][D/4D/4][D/4D/4][D/4D/4][D/4D/4][D/4D/4][D/4D/4][D/4D/4] [DD][DD] (3DCA, |
 "G"[d/4=B/4G/4][d/4=B/4G/4][d/4=B/4G/4][d/4=B/4G/4][d/4=B/4G/4][d/4=B/4G/4][d/4=B/4G/4][d/4=B/4G/4] [d/4=B/4G/4][d/4=B/4G/4][d/4=B/4G/4][d/4=B/4G/4][d/4=B/4G/4][d/4=B/4G/4][d/4=B/4G/4][d/4=B/4G/4] [d=BG][d=BG] |
 "A"[e/4_d/4A/4][e/4_d/4A/4][e/4_d/4A/4][e/4_d/4A/4][e/4_d/4A/4][e/4_d/4A/4][e/4_d/4A/4][e/4_d/4A/4] [e/4_d/4A/4][e/4_d/4A/4][e/4_d/4A/4][e/4_d/4A/4][e/4_d/4A/4][e/4_d/4A/4][e/4_d/4A/4][e/4_d/4A/4] [e_dA][e_dA] |
 [e/4_d/4A/4][e/4_d/4A/4][e/4_d/4A/4][e/4_d/4A/4][e/4_d/4A/4][e/4_d/4A/4][e/4_d/4A/4][e/4_d/4A/4] [e_dA][e_dA] A,C |
 "Dm"[D/4D/4][D/4D/4][D/4D/4][D/4D/4][D/4D/4][D/4D/4][D/4D/4][D/4D/4] [DD][DD] (3DCA, |
 "F"E/F/4F/4F/4F/4F/4F/4 FF F/4F/4G/4G/4F/4F/4F/4F/4 | "C"E/4E/4E/4E/4E/4E/4E/4E/4 EF (3E/F/E/D |
 "Dm"D/4D/4D/4D/4D/4D/4D/4D/4 DD A,_D | D/4D/4D/4D/4D/4D/4D/4D/4 DD F/4F/4E/4E/4D/4D/4D/4D/4 |
 "A"E/4E/4E/4E/4E/4E/4E/4E/4 EE F/4F/4E/4E/4D/4D/4D/4D/4 | "Dm"[D/D/][D/4D/4][D/4D/4][D/4D/4][D/4D/4][D/4D/4][D/4D/4] [D/4D/4][D/4D/4][D/4D/4][D/4D/4][D/4D/4][D/4D/4][D/4D/4][D/4D/4] [DD][DD] |
 [D/D/][D/4D/4][D/4D/4][D/4D/4][D/4D/4][D/4D/4][D/4D/4]
  [D/4D/4][D/4D/4][D/4D/4][D/4D/4][D/4D/4][D/4D/4][D/4D/4][D/4D/4] [DD][DD] |

 "Part B""G"[d/4=B/4G/4][d/4=B/4G/4][d/4=B/4G/4][d/4=B/4G/4][d/4=B/4G/4][d/4=B/4G/4][d/4=B/4G/4][d/4=B/4G/4] [d/4=B/4G/4][d/4=B/4G/4][d/4=B/4G/4][d/4=B/4G/4][d/4=B/4G/4][d/4=B/4G/4][d/4=B/4G/4][d/4=B/4G/4] [d=BG][d=BG] |
 "A"[e/4_d/4A/4][e/4_d/4A/4][e/4_d/4A/4][e/4_d/4A/4][e/4_d/4A/4][e/4_d/4A/4][e/4_d/4A/4][e/4_d/4A/4] [e/4_d/4A/4][e/4_d/4A/4][e/4_d/4A/4][e/4_d/4A/4][e/4_d/4A/4][e/4_d/4A/4][e/4_d/4A/4][e/4_d/4A/4] [e_dA][e_dA] |
 "Dm"[f/4d/4A/4][f/4d/4A/4][f/4d/4A/4][f/4d/4A/4][f/4d/4A/4][f/4d/4A/4][f/4d/4A/4][f/4d/4A/4] [f/4d/4A/4][f/4d/4A/4][f/4d/4A/4][f/4d/4A/4][f/4d/4A/4][f/4d/4A/4][f/4d/4A/4][f/4d/4A/4] [fdA][fdA] |
 [f/4d/4A/4][f/4d/4A/4][f/4d/4A/4][f/4d/4A/4][f/4d/4A/4][f/4d/4A/4][f/4d/4A/4][f/4d/4A/4] [fdA][fdA] DD |
 "G"[d/4=B/4G/4][d/4=B/4G/4][d/4=B/4G/4][d/4=B/4G/4][d/4=B/4G/4][d/4=B/4G/4][d/4=B/4G/4][d/4=B/4G/4] [d/4=B/4G/4][d/4=B/4G/4][d/4=B/4G/4][d/4=B/4G/4][d/4=B/4G/4][d/4=B/4G/4][d/4=B/4G/4][d/4=B/4G/4] [d=BG][d=BG] |
 "A"[e/4_d/4A/4][e/4_d/4A/4][e/4_d/4A/4][e/4_d/4A/4][e/4_d/4A/4][e/4_d/4A/4][e/4_d/4A/4][e/4_d/4A/4] [e/4_d/4A/4][e/4_d/4A/4][e/4_d/4A/4][e/4_d/4A/4][e/4_d/4A/4][e/4_d/4A/4][e/4_d/4A/4][e/4_d/4A/4] [e_dA][e_dA] |
 "Dm"[f/4d/4A/4][f/4d/4A/4][f/4d/4A/4][f/4d/4A/4][f/4d/4A/4][f/4d/4A/4][f/4d/4A/4][f/4d/4A/4] [f/4d/4A/4][f/4d/4A/4][f/4d/4A/4][f/4d/4A/4][f/4d/4A/4][f/4d/4A/4][f/4d/4A/4][f/4d/4A/4] [fdA][fdA] |
 [f/4d/4A/4][f/4d/4A/4][f/4d/4A/4][f/4d/4A/4][f/4d/4A/4][f/4d/4A/4][f/4d/4A/4][f/4d/4A/4] [f/4d/4A/4][f/4d/4A/4][f/4d/4A/4][f/4d/4A/4][f/4d/4A/4][f/4d/4A/4][f/4d/4A/4][f/4d/4A/4] [fd][fd] |
 [c'/4a/4][c'/4a/4][c'/4a/4][c'/4a/4][c'/4a/4][c'/4a/4][c'/4a/4][c'/4a/4] [c'a][c'a] [c'/4a/4][c'/4a/4][_d'/4b/4][d'/4b/4][c'/4a/4][c'/4a/4][c'/4a/4][c'/4a/4] |
 "Gm"[b/4g/4][b/4g/4][b/4g/4][b/4g/4][b/4g/4][b/4g/4][b/4g/4][b/4g/4] [bg][bg] [c'a][bg] |
 "Dm"[_a/4f/4][_a/4f/4][_a/4f/4][_a/4f/4][_a/4f/4][_a/4f/4][_a/4f/4][_a/4f/4] [af][af] [_a/4f/4][_a/4f/4][g/4e/4][g/4e/4][f/4d/4][f/4d/4][f/4d/4][f/4d/4] |
 [f/4d/4A/4][f/4d/4A/4][f/4d/4A/4][f/4d/4A/4][f/4d/4A/4][f/4d/4A/4][f/4d/4A/4][f/4d/4A/4] [fdA]D (3DGA |
 [f/4d/4][f/4d/4][f/4d/4][f/4d/4][f/4d/4][f/4d/4][f/4d/4][f/4d/4] [fd][fd] [_a/4f/4][_a/4f/4][g/4e/4][g/4e/4][f/4d/4][f/4d/4][f/4d/4][f/4d/4] |
 "A"[g/4e/4][g/4e/4][g/4e/4][g/4e/4][g/4e/4][g/4e/4][g/4e/4][g/4e/4] [ge][fd] [_a/4f/4][_a/4f/4][g/4e/4][g/4e/4][g/4e/4][g/4e/4][g/4e/4][g/4e/4] | "Dm"[fd][_af] =B[fd] _B[fd] |
  [f/4d/4A/4][f/4d/4A/4][f/4d/4A/4][f/4d/4A/4][f/4d/4A/4][f/4d/4A/4][f/4d/4A/4][f/4d/4A/4] [f4d4A4] |

 [f6d6c6A6D6A,6] | [f6d6c6A6D6A,6] | [f6d6c6A6D6A,6] | [f6d6c6A6D6A,6] | "Note: Try a false harmonic above 1st fret"D6 |

